!!!COM: Palestrina, Giovanni Perluigi da
!!!OPR: Missa Viri Galilaei
!!!OMD: Gloria
!!!OTL: Crucifixus
**kern	**kern	**kern	**kern
*Ibass	*Itenor	*Icalto	*Icalto
!Bassus	!Tenor	!Altus 2	!Altus 1
*clefF4	*clefGv2	*clefG2	*clefG2
*k[b-]	*k[b-]	*k[b-]	*k[b-]
*G:dor	*G:dor	*G:dor	*G:dor
*M4/2	*M4/2	*M4/2	*M4/2
=118	=118	=118	=118
0G	0r	0r	1r
.	.	.	[1d
=119	=119	=119	=119
1B	0r	0r	1d]
2.c	.	.	1e
4B-	.	.	.
=120	=120	=120	=120
4A	1r	0r	1f#
4G	.	.	.
2A	.	.	.
2G	[1G	.	1g
[2B-	.	.	.
=121	=121	=121	=121
4B-]	1G]	0d	2.b-
4A	.	.	.
4G	.	.	.
4F	.	.	4a
1G	1B	.	4g
.	.	.	4f
.	.	.	[2g
=122	=122	=122	=122
1C	2.c	1e	2g]
.	.	.	2e
.	4B-	.	.
1D	4A	1f#	1d
.	4G	.	.
.	2A	.	.
=123	=123	=123	=123
2G	2G	2g	2d
1G	1d	1b-	1g
2B-	2d	2b-	2f
=124	=124	=124	=124
2F	2c	2a	2f
2G	2B-	2g	2d
[1F	4A	4cc	1f
.	4G	4b-	.
.	4F	4a	.
.	4G	4g	.
=125	=125	=125	=125
1F]	4A	4f	1c
.	4B-	4g	.
.	4c	1a	.
.	4d	.	.
1E-	4c	.	1r
.	4B-	.	.
.	4B-	[2g	.
.	8A	.	.
.	8G	.	.
=126	=126	=126	=126
1D	2A	2g]	1r
.	2A	4f	.
.	.	4e	.
1r	2r	2f	1a
.	2d	2f	.
=127	=127	=127	=127
0r	2.d	2.f	2.a
.	4A	4f	4a
.	2c	2e	2g
.	2d	2d	2f
=128	=128	=128	=128
0r	1A	4c	4e
.	.	4d	4d
.	.	4e	4c
.	.	4f	4d
.	[1G	4g	4e
.	.	4a	4f
.	.	4g	4g
.	.	4f	4a
=129	=129	=129	=129
0r	2G]	4e	4g
.	.	4d	4f
.	2B-	1d	4f
.	.	.	8e
.	.	.	8d
.	1A	.	1e
.	.	2c#	.
=130	=130	=130	=130
1.BB-	2r	2d	2d
.	1d	1f	1b-
2BB-	2d	2f	2b-
=131	=131	=131	=131
2.F	2.c	2.f	2.a
4G	4B-	4d	4g
2F	2c	1f	2a
2D	2d	.	2b-
=132	=132	=132	=132
1C	4e	2g	4cc
.	4d	.	4b-
.	4c	1a	4a
.	4B-	.	4g
2D	4A	.	4f
.	4G	.	4e
2D	2F	[2b-	[2d
=133	=133	=133	=133
1E-	1G	4b-]	4d]
.	.	4a	8c
.	.	.	8B-
.	.	2.g	2c
1D	1A	.	[1d
.	.	4f#	.
.	.	4f#	.
.	.	8e	.
.	.	8f#	.
=134	=134	=134	=134
1G	2r	2.g	1d]
.	2G	.	.
.	.	4a	.
1r	4G	1b-	2r
.	4A	.	.
.	4B-	.	2d
.	4c	.	.
=135	=135	=135	=135
2r	4d	1a	4d
.	4c	.	4e
2D	4d	.	4f
.	4e	.	4g
4D	2f	1r	4a
4E	.	.	4g
4F	2d	.	4a
4G	.	.	4b-
=136	=136	=136	=136
4A	2.c	1r	2cc
4G	.	.	.
4A	.	.	2a
4B-	4d	.	.
2c	4e	2r	2g
.	8d	.	.
.	8e	.	.
2d	[2f	2d	4f
.	.	.	4e
=137	=137	=137	=137
1B-	4f]	4d	1d
.	4e	4e	.
.	1d	4f	.
.	.	4g	.
[1A	.	4a	1e
.	.	4g	.
.	2c	4a	.
.	.	4b-	.
=138	=138	=138	=138
1A]	2e	2cc	2r
.	2f	2cc	2.a
1r	1g	1b-	.
.	.	.	4g
.	.	.	2g
=139	=139	=139	=139
2r	1d	1a	2.f
2.d	.	.	.
.	.	.	8e
.	.	.	8d
.	1A	2r	1e
4c	.	.	.
2c	.	[2a	.
=140	=140	=140	=140
1B-	2r	4a]	1d
.	.	4g	.
.	1d	2g	.
1A	.	4f	2r
.	.	8e	.
.	.	8d	.
.	[2c	2e	[2a
=141	=141	=141	=141
2F	2c]	1d	2a]
2G	2B-	.	1g
2.D	2.d	2r	.
.	.	[2a	[2f
4E	8c	.	.
.	8B-	.	.
=142	=142	=142	=142
2F	2A	2a]	4f]
.	.	.	4e
2G	2B	2g	1d
1A	1c	2f	.
.	.	2e	[2c
=143	=143	=143	=143
1G	1d	1g	2c]
.	.	.	2B
2r	1c	2e	2c
2c	.	2e	2g
=144	=144	=144	=144
2c	0r	2e	2g
2B	.	2d	2g
2c	.	2e	2g
2F	.	2f	2a
=145	=145	=145	=145
1G	1r	1d	1b
1c	2r	2e	2cc
.	2c	2g	2c
=146	=146	=146	=146
0r	2c	2g	2e
.	2B	2g	2d
.	2c	2g	2e
.	2F	2a	2f
=147	=147	=147	=147
1r	4G	1b-	2.d
.	4A	.	.
.	4B-	.	.
.	4c	.	4e
2r	2d	4a	2.f
.	.	4g	.
2d	[2f	4f	.
.	.	4e	4g
=148	=148	=148	=148
2d	2f]	2d	1.a
2c#	2.e	2e	.
2d	.	2f#	.
.	4d	.	.
2G	[2d	2g	2b-
=149	=149	=149	=149
1A	2d]	2e	1a
.	2c#	2a	.
1B-	2r	2a	1d
.	2d	2g	.
=150	=150	=150	=150
1A	2d	1a	2f
.	2c#	.	2e
2r	4d	2a	4f
.	4c	.	4e
2G	4B-	[2b-	4d
.	4A	.	4c
=151	=151	=151	=151
2G	2G	2b-]	1d
2F#	2A	2.a	.
2G	2B-	.	2d
.	.	4g	.
2C	2c	[2g	[2e-
=152	=152	=152	=152
1D	2A	4g]	4e-]
.	.	4f	4d
.	1B-	4f	1d
.	.	8e	.
.	.	8f	.
1E-	.	1g	.
.	4A	.	2c
.	4G	.	.
=153	=153	=153	=153
1D	2A	2f	2d
.	2d	2f	2a
1r	2d	2f	2a
.	2c#	2e	2a
=154	=154	=154	=154
0r	2d	2f	2a
.	2G	2g	2b-
.	1A	2e	4cc
.	.	.	4b-
.	.	4f	4a
.	.	4e	4g
=155	=155	=155	=155
2r	1B-	4d	2f
.	.	4c	.
2d	.	2d	2g
2d	1A	2e	2.a
2c#	.	2a	.
.	.	.	4g
=156	=156	=156	=156
2d	2r	2a	2f
2G	2d	2b-	2g
1A	2d	2.a	2e
.	2c#	.	2a
.	.	4g	.
=157	=157	=157	=157
2r	4d	2f#	2a
.	4c	.	.
2G	4B-	2g	1b-
.	4A	.	.
2G	2G	2d	.
2F#	2A	2d	[2a
=158	=158	=158	=158
2G	2B-	2d	4a]
.	.	.	4g
2C	2c	2e-	1g
1D	1A	2.d	.
.	.	.	2f#
.	.	4d	.
=159	=159	=159	=159
0G	0B	1d	1g
.	.	1g	1d
=160	=160	=160	=160
1C	1c	1g	1e
1F	1A	1c	1f
=161	=161	=161	=161
[0BB-	2B-	0d	1f
.	2d	.	.
.	1f	.	2r
.	.	.	2d
=162	=162	=162	=162
0BB-]	2d	2r	1f
.	2.f	2d	.
.	.	1f	2d
.	4e	.	.
.	4d	.	[2f
.	4c	.	.
=163	=163	=163	=163
0r	2.B-	2d	4f]
.	.	.	4e
.	.	1f	4d
.	4c	.	4c
.	2d	.	2B-
.	2A	[2e	2c
=164	=164	=164	=164
0r	1B-	2e]	4d
.	.	.	4e
.	.	1d	4f
.	.	.	4d
.	1A	.	1e
.	.	2c#	.
=165	=165	=165	=165
1G	2.B-	[0d	1d
.	4A	.	.
1B-	1G	.	2r
.	.	.	2g
=166	=166	=166	=166
2G	2r	1d]	1b-
2.B-	2G	.	.
.	2.B-	1d	2g
4A	.	.	.
4G	.	.	[2b-
4F	4A	.	.
=167	=167	=167	=167
2E-	2G	2e-	2b-]
2F	2A	2c	1a
1C	2.c	1e-	.
.	.	.	2g
.	4B-	.	.
=168	=168	=168	=168
0D	2A	1d	2f#
.	2G	.	1g
.	1A	2r	.
.	.	2a	2f#
=169	=169	=169	=169
0G	1G	1b-	2g
.	.	.	2g
.	1r	2g	2b-
.	.	[2b-	2g
=170	=170	=170	=170
1G	1d	4b-]	2.b-
.	.	4a	.
.	.	2.g	.
.	.	.	4a
[1C	2e-	.	2.g
.	.	4f	.
.	2c	4e-	.
.	.	4d	4f
=171	=171	=171	=171
1C]	2.e-	1c	4e-
.	.	.	4d
.	.	.	4c
.	4d	.	4d
1C	1c	1g	1e-
=172	=172	=172	=172
0G	0B	0g	0d
*-	*-	*-	*-
!!!CDT: 1525/^1526/-1594/2/2
!!!OCY: Italia
!!!AGN: Mass (Parody)
!!!AST: renaissance, vocal
!!!ASW: Motet 1569 (Palestrina)
!!!PWK: Masses, Book 12
!!!RNB: Cadence finals: D
!!!YOR: Le Opere Complete, v. 29, p. 159
!!!YOO: Rome, Italy: Fratelli Scalera
!!!END: 1992//
!!!EED: John Miller
!!!YEC: Copyright 2000, John Miller
!!!YEN: United States of America
!!!YEM: Rights to all derivative electronic formats reserved.
!!!YEM: Refer to licensing agreement for further details.
!!!YEM: This file must be accompanied by the licensing agreement.
!!!YEM: A copy of the licensing agreement may be found at http://www.music-cog.ohio-state.edu/HumdrumDatabases/Palestrina/license.txt
!!!EMD: converted to Humdrum by Bret Aarden
